X:44
T:All Hands Hoy. THO2.044
O:London
T:All Hands High Hornpipe,aka. THO2.044
M:C|
L:1/8
Q:1/2=100
B:Thompson's Compleat Coll. of 200 Favourite Country Dances, vol.2,1765
Z:Transcribed and edited by Fynn Titford-Mock, 2007
Z:abc's:AK/Fiddler's Companion/VMP 2009
K:Bb
BdBG AcA^F|G2 [G,2G2] [G,3G3]A|BGBd AFAc|B2 [B2b2][B3b3]B|
BdBG A2F2|EGEC D2F2|GEFG AFGA|[D2B2][D2B2][D4B4]:|
|:Bdfb fdBd|A2c2 c4|GBAc BdBG|A2F2F2TED|
EGcB FAdc|GBed cB A2|GBAc dBcA|F2A2 B4:|

